static/logos/icon.svg

<svg width="64" height="64" viewBox="0 0 64 64" version="1.1" xmlns="http://www.w3.org/2000/svg" xmlns:xlink="http://www.w3.org/1999/xlink" xmlns:figma="http://www.figma.com/figma/ns">
<title>The Collegian Magazine</title>
<g id="Canvas" transform="translate(0 39)" figma:type="canvas">
<mask id="mask0_alpha" mask-type="alpha">
<path d="M 0 -39L 64 -39L 64 25L 0 25L 0 -39Z" fill="#FFFFFF"/>
</mask>
<g id="Icon" style="mix-blend-mode:normal;" mask="url(#mask0_alpha)" figma:type="frame">
<path d="M 0 -39L 64 -39L 64 25L 0 25L 0 -39Z" fill="#080B13"/>
<g id="CM" style="mix-blend-mode:normal;" figma:type="text">
<use xlink:href="#path0_fill" transform="translate(4 -36)" fill="#FBFBFF" style="mix-blend-mode:normal;"/>
</g>
<g id="Rectangle" style="mix-blend-mode:normal;" figma:type="rounded-rectangle">
<use xlink:href="#path1_fill" transform="translate(9 9)" fill="#F6E06E" style="mix-blend-mode:normal;"/>
</g>
</g>
</g>
<defs>
<path id="path0_fill" d="M 21.874 40.1279C 21.8187 39.4196 21.7246 38.9105 21.5918 38.6006C 21.4701 38.2796 21.2874 38.1191 21.0439 38.1191C 20.8669 38.1191 20.6344 38.2132 20.3467 38.4014C 19.6716 38.8773 19.0462 39.2702 18.4707 39.5801C 17.9062 39.8789 17.2588 40.1224 16.5283 40.3105C 15.7979 40.5098 14.9733 40.6094 14.0547 40.6094C 11.8965 40.6094 10.0039 40.1224 8.37695 39.1484C 6.76107 38.1745 5.50488 36.7633 4.6084 34.915C 3.72298 33.0557 3.28027 30.8477 3.28027 28.291C 3.28027 25.7897 3.73958 23.5762 4.6582 21.6504C 5.57682 19.7246 6.85514 18.2305 8.49316 17.168C 10.1312 16.1055 11.9961 15.5742 14.0879 15.5742C 15.4382 15.5742 16.5892 15.7679 17.541 16.1553C 18.5039 16.5426 19.4391 17.085 20.3467 17.7822C 20.5902 17.9814 20.8115 18.0811 21.0107 18.0811C 21.4756 18.0811 21.7633 17.4059 21.874 16.0557L 22.6543 16.0557C 22.5658 17.5277 22.5215 20.1341 22.5215 23.875L 21.7412 23.875C 21.5752 22.8568 21.4202 22.0654 21.2764 21.501C 21.1436 20.9365 20.9831 20.4606 20.7949 20.0732C 20.6068 19.6748 20.3522 19.2653 20.0312 18.8447C 19.3451 17.9593 18.4762 17.2952 17.4248 16.8525C 16.3734 16.4098 15.2389 16.1885 14.0215 16.1885C 12.5495 16.1885 11.2601 16.6755 10.1533 17.6494C 9.04655 18.6234 8.1888 20.0124 7.58008 21.8164C 6.97135 23.6204 6.66699 25.7344 6.66699 28.1582C 6.66699 30.6263 6.99902 32.7458 7.66309 34.5166C 8.32715 36.2874 9.24023 37.6322 10.4023 38.5508C 11.5645 39.4694 12.8815 39.9287 14.3535 39.9287C 15.4824 39.9287 16.5837 39.7129 17.6572 39.2812C 18.7308 38.8496 19.5664 38.2021 20.1641 37.3389C 20.6289 36.7191 20.9609 36.0495 21.1602 35.3301C 21.3594 34.5996 21.5531 33.4762 21.7412 31.96L 22.5215 31.96C 22.5215 35.8669 22.5658 38.5895 22.6543 40.1279L 21.874 40.1279ZM 53.0684 16.7363C 52.2493 16.7695 51.6517 16.8581 51.2754 17.002C 50.9102 17.1458 50.6556 17.4115 50.5117 17.7988C 50.3789 18.1862 50.3125 18.806 50.3125 19.6582L 50.3125 36.5254C 50.3125 37.3776 50.3789 37.9974 50.5117 38.3848C 50.6556 38.7721 50.9102 39.0378 51.2754 39.1816C 51.6517 39.3255 52.2493 39.4141 53.0684 39.4473L 53.0684 40.1279C 52.0059 40.0615 50.5671 40.0283 48.752 40.0283C 46.804 40.0283 45.3542 40.0615 44.4023 40.1279L 44.4023 39.4473C 45.2214 39.4141 45.8135 39.3255 46.1787 39.1816C 46.5439 39.0378 46.793 38.7721 46.9258 38.3848C 47.0697 37.9974 47.1416 37.3776 47.1416 36.5254L 47.1416 18.3301L 38.957 40.2939L 38.4092 40.2939L 29.8428 18.2305L 29.8428 36.1768C 29.8428 37.0511 29.9202 37.7096 30.0752 38.1523C 30.2301 38.5951 30.5179 38.916 30.9385 39.1152C 31.3701 39.3034 32.0342 39.4141 32.9307 39.4473L 32.9307 40.1279C 32.1227 40.0615 30.9661 40.0283 29.4609 40.0283C 28.1107 40.0283 27.0592 40.0615 26.3066 40.1279L 26.3066 39.4473C 27.0924 39.4141 27.6735 39.3034 28.0498 39.1152C 28.4372 38.916 28.7028 38.5951 28.8467 38.1523C 28.9906 37.7096 29.0625 37.0511 29.0625 36.1768L 29.0625 19.6582C 29.0625 18.806 28.9906 18.1862 28.8467 17.7988C 28.7139 17.4115 28.4593 17.1458 28.083 17.002C 27.7178 16.8581 27.1257 16.7695 26.3066 16.7363L 26.3066 16.0557C 27.0482 16.1221 28.0996 16.1553 29.4609 16.1553C 30.6562 16.1553 31.6247 16.1221 32.3662 16.0557L 39.8369 35.7783L 47.1416 16.1553L 48.752 16.1553C 50.5671 16.1553 52.0059 16.1221 53.0684 16.0557L 53.0684 16.7363Z"/>
<path id="path1_fill" d="M 0 0L 48 0L 48 2L 0 2L 0 0Z"/>
</defs>
</svg>

<svg width="64" height="64" viewBox="0 0 64 64" xmlns="http://www.w3.org/2000/svg" xmlns:xlink="http://www.w3.org/1999/xlink" xmlns:figma="http://www.figma.com/figma/ns"><title>The Collegian Magazine</title><g transform="translate(0 39)" figma:type="canvas"><mask id="a"><path d="M0-39h64v64H0v-64z" fill="#FFF"/></mask><g style="mix-blend-mode:normal" mask="url(#a)" figma:type="frame"><path d="M0-39h64v64H0v-64z" fill="#080B13"/><use xlink:href="#b" transform="translate(4 -36)" fill="#FBFBFF" style="mix-blend-mode:normal" figma:type="text"/><use xlink:href="#c" transform="translate(9 9)" fill="#F6E06E" style="mix-blend-mode:normal" figma:type="rounded-rectangle"/></g></g><defs><path id="b" d="M21.874 40.128c-.055-.708-.15-1.218-.282-1.527-.122-.32-.305-.48-.548-.48-.177 0-.41.1-.697.28-.675.48-1.3.87-1.876 1.18-.56.3-1.21.55-1.94.73-.73.2-1.55.3-2.47.3-2.16 0-4.05-.48-5.68-1.46-1.61-.97-2.87-2.38-3.77-4.23-.88-1.86-1.32-4.06-1.32-6.62 0-2.5.46-4.71 1.38-6.64.92-1.92 2.2-3.42 3.84-4.48 1.64-1.06 3.5-1.59 5.59-1.59 1.35 0 2.5.2 3.46.58.967.39 1.9.93 2.81 1.63.247.2.468.3.668.3.467 0 .754-.67.865-2.02h.78c-.09 1.47-.132 4.08-.132 7.82h-.78c-.164-1.02-.32-1.81-.463-2.37-.13-.563-.29-1.04-.48-1.426-.19-.4-.442-.81-.763-1.23-.685-.885-1.554-1.55-2.605-1.99-1.05-.444-2.184-.666-3.4-.666-1.47 0-2.76.49-3.868 1.46-1.105.976-1.963 2.365-2.572 4.17-.61 1.803-.914 3.917-.914 6.34 0 2.47.334 4.59.998 6.36.665 1.77 1.578 3.115 2.74 4.034 1.16.92 2.48 1.38 3.95 1.38 1.13 0 2.23-.214 3.305-.65 1.077-.43 1.91-1.075 2.51-1.94.465-.62.797-1.29.996-2.01.2-.73.39-1.85.58-3.37h.78c0 3.91.042 6.63.13 8.17h-.78zm31.194-23.392c-.82.034-1.416.122-1.793.266-.365.144-.62.41-.763.797-.133.38-.2 1-.2 1.85v16.87c0 .85.067 1.47.2 1.86.144.38.398.65.763.79.377.14.974.23 1.793.26v.68c-1.062-.07-2.5-.1-4.316-.1-1.948 0-3.398.03-4.35.1v-.68c.82-.038 1.41-.12 1.777-.27.36-.14.61-.41.74-.795.14-.386.21-1.005.21-1.86V18.33l-8.18 21.964h-.55L29.84 18.23v17.947c0 .874.076 1.533.23 1.975.156.443.444.764.865.963.43.188 1.094.3 1.99.332v.68c-.807-.066-1.964-.1-3.47-.1-1.35 0-2.4.035-3.153.1v-.68c.785-.033 1.367-.144 1.743-.332.387-.2.653-.52.797-.963.144-.442.215-1.1.215-1.975v-16.52c0-.85-.07-1.47-.216-1.858-.13-.39-.38-.66-.76-.8-.36-.15-.95-.23-1.77-.27v-.68c.74.06 1.8.1 3.16.1 1.2 0 2.17-.04 2.91-.1l7.47 19.72 7.31-19.63h1.61c1.818 0 3.257-.04 4.32-.1v.68z"/><path id="c" d="M0 0h48v2H0V0z"/></defs></svg>
